!!!!SEGMENT: Wil2062-Precatus_est_Moyses.krn
!!!id: Wil2062
!!!AGN: Motet
!!!SCT: Zenck (1950); Smijers (1960)
!!!voices: 4
!!!COM: Adrian Willaert
!!!OTL: Precatus est Moyses
**kern	**kern	**kern	**kern	**kern
*part5	*part4	*part3	*part2	*part1
*staff5	*staff4	*staff3	*staff2	*staff1
*I"Bassus	*I"Tenor	*I"Altus	*I"Superius II	*I"Superius I
*I'B	*I'T	*I'A	*I'S. II	*I'S. I
*clefF4	*clefGv2	*clefGv2	*clefG2	*clefG2
*k[]	*k[]	*k[]	*k[]	*k[]
*C:	*C:	*C:	*C:	*C:
*M2/1	*M2/1	*M2/1	*M2/1	*M2/1
*met(C|)	*met(C|)	*met(C|)	*met(C|)	*met(C|)
!!section: Prima pars: Precatus est Moyses
!!!OMD: Prima pars: Precatus est Moyses
=1	=1	=1	=1	=1
!	!LO:TX:a:t=Canon&colon; tenor/superius II at the fifth	!	!	!
0G	0r	0r	0r	0r
=2	=2	=2	=2	=2
1A	0r	1r	0r	0r
1B	.	[1d	.	.
=3	=3	=3	=3	=3
2.G	0r	1d]	0r	0r
4F	.	.	.	.
2G	.	1e	.	.
[2A	.	.	.	.
=4	=4	=4	=4	=4
2A]	0r	1f	0r	0r
2.B	.	.	.	.
.	.	2.d	.	.
4A	.	.	.	.
[2G	.	.	.	.
.	.	4c	.	.
=5	=5	=5	=5	=5
4G]	0G	2d	0r	0r
4F	.	.	.	.
4E	.	2.e	.	.
4D	.	.	.	.
2C	.	.	.	.
.	.	4d	.	.
2BB	.	[2d	.	.
=6	=6	=6	=6	=6
1AA	1A	2d]	0r	0r
.	.	2c	.	.
2GG	1B	[1d	.	.
[2G	.	.	.	.
=7	=7	=7	=7	=7
4G]	2.G	2d]	0r	0r
4F	.	.	.	.
4E	.	2.e	.	.
4D	4F	.	.	.
2C	2G	.	.	.
.	.	4d	.	.
[2F	[2A	4c	.	.
.	.	4B	.	.
=8	=8	=8	=8	=8
4F]	4A]	2.c	1r	0a
4E	4G	.	.	.
2C	1G	.	.	.
.	.	4B	.	.
1D	.	1A	[1d	.
.	2F#i	.	.	.
=9	=9	=9	=9	=9
1GG	0G	1G	1d]	1b
1C	.	1r	1e	1cc
=10	=10	=10	=10	=10
2.D	0r	2r	1f	2.a
.	.	2.d	.	.
4E	.	.	.	4g
2F	.	.	2.d	2a
.	.	4c	.	.
[2G	.	4B	.	[2b
.	.	4A	4c	.
=11	=11	=11	=11	=11
4G]	0r	2G	2d	4b]
4F	.	.	.	4a
4E	.	2B	2.e	1g
4D	.	.	.	.
2C	.	1A	.	.
.	.	.	4d	.
2D	.	.	[2d	2f#i
=12	=12	=12	=12	=12
1E	1r	2G	2d]	1g
.	.	2.g	2c	.
2.D	[1A	.	[1d	1r
.	.	4f	.	.
.	.	[2f	.	.
4E	.	.	.	.
=13	=13	=13	=13	=13
2F	2A]	2f]	1d]	2r
2G	2B	4e	.	1g
.	.	4d	.	.
1C	2.c	1e	1r	.
.	.	.	.	2g
.	4B	.	.	.
=14	=14	=14	=14	=14
2.F	2c	1.f	0r	2.a
.	2.d	.	.	.
4E	.	.	.	4g
2D	.	.	.	2a
.	4c	.	.	.
[2G	4B	2d	.	[2b
.	4A	.	.	.
=15	=15	=15	=15	=15
2G]	2G	1d	0r	4b]
.	.	.	.	4a
2F	2A	.	.	1a
1E	1B	1e	.	.
.	.	.	.	2g#i
=16	=16	=16	=16	=16
2.AA	0A	1c	1.e	2a
.	.	.	.	1cc
4BB	.	.	.	.
2C	.	1r	.	.
2D	.	.	2f	4b
.	.	.	.	4a
=17	=17	=17	=17	=17
1GG	1r	1d	2.g	2b
.	.	.	.	2.b
.	.	.	4f	.
1r	2r	2e	2g	.
.	.	.	.	4cc
.	2D	[2f	[2a	2dd
=18	=18	=18	=18	=18
1r	1F	4f]	4a]	2cc
.	.	4e	4g	.
.	.	4d	4f	1dd
.	.	4c	4e	.
2r	1G	2B	2d	.
2C	.	[2e	2e	2cc
=19	=19	=19	=19	=19
1D	2F	2e]	1f	2.a
.	2.A	2d	.	.
.	.	.	.	4b
2.AA	.	1e	[1e	2cc
.	4B	.	.	.
.	[2c	.	.	4b
4BB	.	.	.	4a
=20	=20	=20	=20	=20
1.C	2c]	2r	1e]	1g
.	4B	1e	.	.
.	4A	.	.	.
.	2.G	.	1r	1r
4BB	.	4d	.	.
4AA	4A	4c	.	.
=21	=21	=21	=21	=21
2GG	2B	2d	2r	2r
2.AA	2.c	2f	2A	2cc
.	.	1e	1c	1a
4BB	4B	.	.	.
2C	[2A	.	.	.
=22	=22	=22	=22	=22
1BB	2A]	1r	1d	1b
.	2G#i	.	.	.
2.AA	1A	2r	2c	1cc
.	.	[2c	[2e	.
4BB	.	.	.	.
=23	=23	=23	=23	=23
4C	0r	2c]	4e]	2.g
4D	.	.	4f	.
2.E	.	4B	1g	.
.	.	4A	.	4a
.	.	2.G	.	2.b
4F	.	.	.	.
[2G	.	.	4f	.
.	.	4A	4e	4cc
=24	=24	=24	=24	=24
2G]	0r	2.B	2.d	2dd
4F	.	.	.	1dd
4E	.	8AL	4e	.
.	.	8GJ	.	.
2D	.	2A	2f	.
2E	.	2G	[2g	2b
=25	=25	=25	=25	=25
1C	0r	4E	4g]	1cc
.	.	4F	4f	.
.	.	4G	1e	.
.	.	4E	.	.
1D	.	1F	.	2.a
.	.	.	2d	.
.	.	.	.	4b
=26	=26	=26	=26	=26
1.AA	0A	1E	1e	2cc
.	.	.	.	2.c
.	.	[1e	1r	.
.	.	.	.	4d
[2C	.	.	.	4e
.	.	.	.	4f
=27	=27	=27	=27	=27
2C]	1G	2e]	0r	4g
.	.	.	.	4a
2GG	.	2.d	.	4b
.	.	.	.	4g
1D	1F	.	.	2a
.	.	4c	.	.
.	.	2A	.	2d
=28	=28	=28	=28	=28
0GG	2.G	2.B	0r	1d
.	4A	4c	.	.
.	[1B-X	2d	.	2r
.	.	[2G	.	[2d
=29	=29	=29	=29	=29
1r	1B-]	2G]	1r	4d]
.	.	.	.	4e
.	.	2d	.	4f
.	.	.	.	4g
2r	1A	4c	[1e	4a
.	.	4d	.	4b
[2C	.	4e	.	[2cc
.	.	4f	.	.
=30	=30	=30	=30	=30
4C]	0G	2g	1e]	2cc]
4D	.	.	.	.
4E	.	2.g	.	4b
4F	.	.	.	4a
2G	.	.	1d	2b
.	.	4f	.	.
2B	.	2d	.	2g
=31	=31	=31	=31	=31
1A	1r	2e	1c	2a
.	.	2f	.	1cc
1G	2r	1g	2.d	.
.	2G	.	.	2b
.	.	.	4e	.
=32	=32	=32	=32	=32
2.F	2A	1c	0f	2cc
.	2.c	.	.	1a
4E	.	.	.	.
1D	.	2r	.	.
.	4B	.	.	.
.	4B	2d	.	4g
.	4A	.	.	4f
=33	=33	=33	=33	=33
1C	2.c	2e	1e	1g
.	.	2.g	.	.
.	4B	.	.	.
1D	4A	.	[1d	1r
.	4G	4f	.	.
.	[2A	4f	.	.
.	.	4e	.	.
=34	=34	=34	=34	=34
2GG	2A]	2g	1d]	0r
2BB	1G	2G	.	.
1AA	.	2A	1r	.
.	2F#i	[2c	.	.
=35	=35	=35	=35	=35
1GG	1G	4c]	2r	0g
.	.	8BL	.	.
.	.	8AJ	.	.
.	.	2B	2d	.
2C	1r	2c	2e	.
2GG	.	2B	[2g	.
=36	=36	=36	=36	=36
1D	0r	1A	4g]	1a
.	.	.	4f	.
.	.	.	4f	.
.	.	.	4e	.
1r	.	2.G	2.g	[1b
.	.	4A	4f	.
=37	=37	=37	=37	=37
0G	0r	0B	4e	2b]
.	.	.	4d	.
.	.	.	1e	2g
.	.	.	.	2.g
.	.	.	[2d	.
.	.	.	.	4f
=38	=38	=38	=38	=38
1A	0r	1r	2d]	1e
.	.	.	2c	.
1B	.	[1d	1d	2d
.	.	.	.	[2dd
=39	=39	=39	=39	=39
2.G	0r	1d]	0r	2dd]
.	.	.	.	2b
4F	.	.	.	.
2G	.	1e	.	2b
[2A	.	.	.	[2cc
=40	=40	=40	=40	=40
2A]	0r	1f	0r	4cc]
.	.	.	.	4a
2.B	.	.	.	2.dd
.	.	2.d	.	.
4A	.	.	.	4cc
[2G	.	.	.	4b
.	.	4c	.	4a
=41	=41	=41	=41	=41
4G]	0G	2d	0r	1b
4F	.	.	.	.
4E	.	2.e	.	.
4D	.	.	.	.
2C	.	.	.	1r
.	.	4d	.	.
2BB	.	[2d	.	.
=42	=42	=42	=42	=42
1AA	1A	2d]	0r	0r
.	.	2c	.	.
2GG	1B	[1d	.	.
[2G	.	.	.	.
=43	=43	=43	=43	=43
4G]	2.G	2d]	0r	0r
4F	.	.	.	.
4E	.	2.e	.	.
4D	4F	.	.	.
2C	2G	.	.	.
.	.	4d	.	.
[2F	[2A	4c	.	.
.	.	4B	.	.
=44	=44	=44	=44	=44
4F]	4A]	2.c	1r	0a
4E	4G	.	.	.
2C	1G	.	.	.
.	.	4B	.	.
1D	.	1A	[1d	.
.	2F#i	.	.	.
=45	=45	=45	=45	=45
1GG	0G	1G	1d]	1b
1C	.	1r	1e	1cc
=46	=46	=46	=46	=46
2.D	0r	2r	1f	2.a
.	.	2.d	.	.
4E	.	.	.	4g
2F	.	.	2.d	2a
.	.	4c	.	.
[2G	.	4B	.	[2b
.	.	4A	4c	.
=47	=47	=47	=47	=47
4G]	0r	2G	2d	4b]
4F	.	.	.	4a
4E	.	2B	2.e	1g
4D	.	.	.	.
2C	.	1A	.	.
.	.	.	4d	.
2D	.	.	[2d	2f#i
=48	=48	=48	=48	=48
1E	1r	2G	2d]	1g
.	.	2.g	2c#i	.
2.D	[1A	.	[1d	1r
.	.	4f	.	.
.	.	[2f	.	.
4E	.	.	.	.
=49	=49	=49	=49	=49
2F	2A]	2f]	1d]	2r
2G	2B	4e	.	1g
.	.	4d	.	.
1C	2.c	1e	1r	.
.	.	.	.	2g
.	4B	.	.	.
=50	=50	=50	=50	=50
2.F	2c	1.f	0r	2.a
.	2.d	.	.	.
4E	.	.	.	4g
2D	.	.	.	2a
.	4c	.	.	.
[2G	4B	2d	.	[2b
.	4A	.	.	.
=51	=51	=51	=51	=51
2G]	2G	1d	0r	4b]
.	.	.	.	4a
2F	2A	.	.	1a
1E	1B	1e	.	.
.	.	.	.	2g#i
=52	=52	=52	=52	=52
2.AA	0A	1c	1.e	2a
.	.	.	.	1cc
4BB	.	.	.	.
2C	.	1r	.	.
2D	.	.	2f	4b
.	.	.	.	4a
=53	=53	=53	=53	=53
1GG	1r	1d	2.g	2b
.	.	.	.	2.b
.	.	.	4f	.
1r	2r	2e	2g	.
.	.	.	.	4cc
.	2D	[2f	[2a	2dd
=54	=54	=54	=54	=54
1r	1F	4f]	4a]	2cc
.	.	4e	4g	.
.	.	4d	4f	2dd
.	.	4c	4e	.
2r	1G	2B	2d	2dd
2C	.	[2e	2e	2cc
=55	=55	=55	=55	=55
1D	2F	2e]	1f	2.a
.	2.A	2d	.	.
.	.	.	.	4b
2.AA	.	1e	[1e	2cc
.	4B	.	.	.
.	[2c	.	.	4b
4BB	.	.	.	4a
=56	=56	=56	=56	=56
1.C	2c]	2r	1e]	1g
.	4B	1e	.	.
.	4A	.	.	.
.	2.G	.	1r	1r
4BB	.	4d	.	.
4AA	4A	4c	.	.
=57	=57	=57	=57	=57
2GG	2B	2d	2r	2r
2.AA	2.c	2f	2A	2cc
.	.	1e	1c	1a
4BB	4B	.	.	.
2C	[2A	.	.	.
=58	=58	=58	=58	=58
1BB	2A]	1r	1d	1b
.	2G#i	.	.	.
2.AA	1A	2r	2c	1cc
.	.	[2c	[2e	.
4BB	.	.	.	.
=59	=59	=59	=59	=59
4C	0r	2c]	4e]	1g
4D	.	.	4f	.
2.E	.	4B	1g	.
.	.	4A	.	.
.	.	2.G	.	2.b
4F	.	.	.	.
[2G	.	.	4f	.
.	.	4A	4e	4cc
=60	=60	=60	=60	=60
2G]	0r	2.B	2.d	1.dd
4F	.	.	.	.
4E	.	8AL	4e	.
.	.	8GJ	.	.
2D	.	2A	2f	.
2E	.	2G	[2g	2b
=61	=61	=61	=61	=61
1C	1r	2E	4g]	1cc
.	.	.	4f	.
.	.	1G	1e	.
1D	2r	.	.	2.a
.	[2A	2F	2d	.
.	.	.	.	4b
=62	=62	=62	=62	=62
2.C	2A]	1G	1e	4cc
.	.	.	.	4dd
.	1G	.	.	1cc
4BB	.	.	.	.
1AA	.	1A	1r	.
.	2F	.	.	4b
.	.	.	.	4a
=63	=63	=63	=63	=63
2GG	2.G	2r	0r	2b
2C	.	2.e	.	1g
.	4A	.	.	.
1D	2B	.	.	.
.	.	4d	.	.
.	[2A	[2d	.	2f
=64	=64	=64	=64	=64
1E	2A]	2d]	0r	2g
.	2G	2c	.	2e
2.D	[1A	2d	.	1f
.	.	2A	.	.
4C	.	.	.	.
=65	=65	=65	=65	=65
1AA	1A]	2.c	2r	2e
.	.	.	1e	1a
.	.	4B	.	.
1F	1D	4A	.	.
.	.	4G	.	.
.	.	[2A	[2d	2f
=66	=66	=66	=66	=66
1E	1r	4A]	2d]	2.g
.	.	4G	.	.
.	.	2G	2c	.
.	.	.	.	4a
1D	[1D	2.F	2.d	2b
.	.	.	.	[2a
.	.	4G	4e	.
=67	=67	=67	=67	=67
0r	2D]	2A	2f	4a]
.	.	.	.	4b
.	2E	2G	1e	1cc
.	1F	2.A	.	.
.	.	.	2d	4b
.	.	4B	.	4a
=68	=68	=68	=68	=68
1r	2.E	2c	0e	1g
.	.	2B	.	.
.	4F	.	.	.
1C	4G	2E	.	1r
.	4A	.	.	.
.	[2G	[2e	.	.
=69	=69	=69	=69	=69
1D	2G]	2e]	1A	0r
.	2F	2d	.	.
2.C	1G	2.e	1r	.
4BB	.	4d	.	.
=70	=70	=70	=70	=70
2C	0r	2e	1.A	1r
2D	.	2f	.	.
2AA	.	1e	.	2r
[2E	.	.	2B	2g
=71	=71	=71	=71	=71
2E]	0r	1r	1c	2g
2AA	.	.	.	1a
1E	.	1G	2.B	.
.	.	.	.	[2g
.	.	.	4c	.
=72	=72	=72	=72	=72
1D	0r	1A	4d	2g]
.	.	.	4e	.
.	.	.	1d	2f
1E	.	2.G	.	1g
.	.	.	2c	.
.	.	4A	.	.
=73	=73	=73	=73	=73
2.D	1r	2B	1d	1f
.	.	2.A	.	.
4C	.	.	.	.
1AA	1c	.	1r	2e
.	.	4G	.	.
.	.	4F	.	[2a
.	.	4E	.	.
=74	=74	=74	=74	=74
1r	1d	2F	0r	2a]
.	.	2G	.	4g
.	.	.	.	4f
2r	2.c	1A	.	2e
[2F	.	.	.	[2a
.	4B	.	.	.
=75	=75	=75	=75	=75
2F]	2c	1f	0r	2a]
2D	1d	.	.	2a
2G	.	2d	.	2b
2GG	4c	[2g	.	[2dd
.	4B	.	.	.
=76	=76	=76	=76	=76
1D	1A	2g]	0r	4dd]
.	.	.	.	4cc
.	.	2f	.	2a
2r	[1G	2d	.	2b
2C	.	[2e	.	4g
.	.	.	.	4a
=77	=77	=77	=77	=77
2G	1G]	2e]	1g	4b
.	.	.	.	4cc
2B	.	2d	.	2.dd
2A	1r	2e	1a	.
.	.	.	.	4cc
2F	.	2f	.	[2cc
=78	=78	=78	=78	=78
1G	1G	2.d	2.g	2cc]
.	.	.	.	2b
.	.	8eL	4f	.
.	.	8dJ	.	.
2C	2.c	2e	2g	[1cc
[2F	.	2f	[2a	.
.	4B	.	.	.
=79	=79	=79	=79	=79
2F]	4A	1c	2a]	0cc]
.	4G	.	.	.
2F	1A	.	4g	.
.	.	.	4f	.
1C	.	2r	1e	.
.	[2G	2c	.	.
=80	=80	=80	=80	=80
1D	2G]	2B	0d	0r
.	2F	2A	.	.
1GG	1G	1B	.	.
=81	=81	=81	=81	=81
1D	1F	2A	1r	1a
.	.	2.d	.	.
1r	[1G	.	1d	2.dd
.	.	4c	.	.
.	.	4B	.	.
.	.	4A	.	4cc
=82	=82	=82	=82	=82
0r	2G]	2G	2.g	4b
.	.	.	.	4a
.	2G	1d	.	1b
.	.	.	4f	.
.	1A	.	4e	.
.	.	.	4d	.
.	.	2c	[2e	[2a
=83	=83	=83	=83	=83
0r	1B	2d	2e]	2a]
.	.	2d	1d	2g#i
.	[1A	1e	.	1a
.	.	.	2c	.
=84	=84	=84	=84	=84
1D	1A]	1f	1d	2r
.	.	.	.	2.a
2AA	1r	2e	1c	.
.	.	.	.	4g
2AA	.	[2A	.	2e
=85	=85	=85	=85	=85
1D	2r	2A]	1.d	2f
.	1A	2F	.	2d
1D	.	2.A	.	1f
.	2F	.	2d	.
.	.	4B	.	.
=86	=86	=86	=86	=86
1C	1G	[0c	1e	2e
.	.	.	.	2.cc
1FF	[1A	.	1f	.
.	.	.	.	4b
.	.	.	.	[2a
=87	=87	=87	=87	=87
2.AA	1A]	0c]	0e	2a]
.	.	.	.	4g
4BB	.	.	.	4f
1C	1G	.	.	4e
.	.	.	.	4f
.	.	.	.	4g
.	.	.	.	4e
=88	=88	=88	=88	=88
1D	2.F	2.A	1r	1f
.	4G	4B	.	.
2.C	2A	2c	2r	1e
.	[2G	[2c	[2e	.
4D	.	.	.	.
=89	=89	=89	=89	=89
2E	2G]	4c]	2e]	1r
.	.	4B	.	.
2F	1c	4A	2c	.
.	.	4G	.	.
1D	.	1F	1d	2.f
.	2B	.	.	.
.	.	.	.	4g
=90	=90	=90	=90	=90
1C	2c	2r	0e	2a
.	2c	2.c	.	1g
1C	2.G	.	.	.
.	.	4d	.	.
.	.	4e	.	[2cc
.	4A	4c	.	.
=91	=91	=91	=91	=91
1GG	2B	2d	1d	2cc]
.	2G	1g	.	2b
1r	1A	.	2.c	2cc
.	.	2f#i	.	2cc
.	.	.	4d	.
=92	=92	=92	=92	=92
2r	0G	1g	2e	2.b
2.G	.	.	1d	.
.	.	.	.	4cc
.	.	1d	.	2dd
4A	.	.	.	.
2B	.	.	[2g	2g
=93	=93	=93	=93	=93
1A	1c	1r	2g]	4a
.	.	.	.	4b
.	.	.	2f	4cc
.	.	.	.	4a
1G	1d	2r	2g	2b
.	.	2d	2g	4g
.	.	.	.	4a
=94	=94	=94	=94	=94
1G	1B	2d	2.d	4b
.	.	.	.	4cc
.	.	2G	.	2.dd
.	.	.	4e	.
2D	2A	1d	2f	.
.	.	.	.	4cc
[2G	[2B	.	2d	[2b
=95	=95	=95	=95	=95
2G]	2B]	1G	1e	4b]
.	.	.	.	4a
2C	2c	.	.	1g
1D	1A	2r	[1d	.
.	.	[2d	.	2f#i
=96	=96	=96	=96	=96
2GG	2.G	2d]	1d]	1g
1G	.	2B	.	.
.	4A	.	.	.
.	2B	2d	1g	1r
2C	[2c	2e	.	.
=97	=97	=97	=97	=97
1F	4c]	2A	1a	1r
.	4B	.	.	.
.	1A	1c	.	.
1D	.	.	1f	1dd
.	4G	2B	.	.
.	4F	.	.	.
=98	=98	=98	=98	=98
2C	2G	4c	2e	2g
.	.	4B	.	.
1D	2F	4A	1f	2.dd
.	.	4G	.	.
.	2A	2F	.	.
.	.	.	.	4cc
2GG	2B	2d	2g	2b
=99	=99	=99	=99	=99
1C	2.c	2e	1e	2a
.	.	1g	.	2g
.	4B	.	.	.
1D	1A	.	[1d	1dd
.	.	2f#i	.	.
=	=	=	=	=
00GG	00G	00g	00d]	00b
=||	=||	=||	=||	=||
*M2/1	*M2/1	*M2/1	*M2/1	*M2/1
*met(C|)	*met(C|)	*met(C|)	*met(C|)	*met(C|)
!!section: Secunda pars: Memento Abraham
!!!OMD: Secunda pars: Memento Abraham
!	!LO:TX:a:t=Canon&colon; tenor/superius II at the fifth	!	!	!
1r	0r	1c	0r	0r
1C	.	1c	.	.
=100	=100	=100	=100	=100
1C	0G	1.e	0r	0r
[1E	.	.	.	.
.	.	4d	.	.
.	.	4c	.	.
=101	=101	=101	=101	=101
2E]	1G	2B	0r	0r
4D	.	1c	.	.
4C	.	.	.	.
1D	1d	.	.	.
.	.	2B	.	.
=102	=102	=102	=102	=102
2C	0e	1c	0r	1g
1C	.	.	.	.
.	.	1G	.	1g
2C	.	.	.	.
=103	=103	=103	=103	=103
2G	1d	1G	0d	1.b
2GG	.	.	.	.
1GG	[1d	[1B-X	.	.
.	.	.	.	4a
.	.	.	.	4g
=104	=104	=104	=104	=104
0D	2d]	2B-]	1d	2f
.	2d	4A	.	1g
.	.	4G	.	.
.	1d	1A	1a	.
.	.	.	.	2f
=105	=105	=105	=105	=105
1r	1d	0G	0b	1g
1G	2.B	.	.	2.d
.	4c	.	.	4e
=106	=106	=106	=106	=106
2F	4d	1.A	1a	2f
.	4c	.	.	.
2.D	1d	.	.	1f
.	.	.	[1a	.
4E	.	.	.	.
4F	4c	2A	.	2f
4G	4B	.	.	.
=107	=107	=107	=107	=107
2A	4c	2.A	2a]	2e
.	4d	.	.	.
2AA	1e	.	2a	2c
.	.	4G	.	.
1D	.	1F	1a	1d
.	[2d	.	.	.
=108	=108	=108	=108	=108
1AA	2d]	2E	1a	1e
.	2c	1A	.	.
[1D	[1d	.	2.f	1d
.	.	2A	.	.
.	.	.	4g	.
=109	=109	=109	=109	=109
0D]	0d]	2.F	4a	2r
.	.	.	4g	.
.	.	.	1a	2.dd
.	.	4G	.	.
.	.	2A	.	.
.	.	.	.	4cc
.	.	[2d	4g	2a
.	.	.	4f	.
=110	=110	=110	=110	=110
0r	1G	2d]	4g	4b
.	.	.	4a	4a
.	.	2d	1b	4g
.	.	.	.	4f
.	1A	2c	.	2e
.	.	[2e	[2a	2c
=111	=111	=111	=111	=111
1r	1B	4e]	2a]	1d
.	.	4d	.	.
.	.	1d	2g	.
1AA	1A	.	[1a	1e
.	.	2c#i	.	.
=112	=112	=112	=112	=112
1D	1F	1d	0a]	1d
2.D	[1A	1r	.	2.f
4E	.	.	.	4g
=113	=113	=113	=113	=113
2F	2A]	2r	1d	2a
2G	2B	1G	.	2d
2C	1c	.	1e	1g
2E	.	2G	.	.
=114	=114	=114	=114	=114
2.D	1d	2B	1f	0r
.	.	2.A	.	.
4C	.	.	.	.
[1AA	1c	.	1e	.
.	.	4G	.	.
.	.	2E	.	.
=115	=115	=115	=115	=115
1AA]	1r	2F	1c	0r
.	.	1E	.	.
2.AA	[1c	.	[1e	.
.	.	2A	.	.
4BB	.	.	.	.
=116	=116	=116	=116	=116
2C	2c]	2G	2e]	0r
2D	4B	2.d	2f	.
.	4A	.	.	.
2GG	1B	.	1g	.
.	.	4B	.	.
2G	.	[2e	.	.
=117	=117	=117	=117	=117
2.F	1A	2e]	1a	0r
.	.	2d	.	.
4E	.	.	.	.
2.C	[1c	2e	1g	.
.	.	[2e	.	.
4D	.	.	.	.
=118	=118	=118	=118	=118
2E	1c]	2e]	1r	0r
2F	.	4d	.	.
.	.	4c	.	.
2.G	1B	2e	[1g	.
.	.	[2d	.	.
4F	.	.	.	.
=119	=119	=119	=119	=119
2E	2G	4d]	2g]	2r
.	.	4c	.	.
4D	1A	1c	4f	1e
4C	.	.	4e	.
1D	.	.	1f	.
.	2F	2B	.	2d
=120	=120	=120	=120	=120
1C	1G	1c	1e	2e
.	.	.	.	2.g
2.E	2.G	1B	[1g	.
.	.	.	.	4f
.	.	.	.	2e
4F	4A	.	.	.
=121	=121	=121	=121	=121
2G	2B	2B	1g]	2d
2C	2c	2G	.	2e
1D	2A	1d	1f	2d
.	4G	.	.	[2dd
.	4F	.	.	.
=122	=122	=122	=122	=122
1GG	1G	2B	2d	2dd]
.	.	1g	1e	4cc
.	.	.	.	4b
1r	1A	.	.	2cc
.	.	2f#i	2c	2a
=123	=123	=123	=123	=123
0r	1G	2g	1d	2.b
.	.	4G	.	.
.	.	4A	.	4cc
.	1r	4B	2.d	2dd
.	.	4c	.	.
.	.	[2d	.	2b
.	.	.	4e	.
=124	=124	=124	=124	=124
0r	2r	2d]	2f	2a
.	2G	2B	2g	1g
.	2A	2c	2e	.
.	[2c	2A	4d	2f
.	.	.	4c	.
=125	=125	=125	=125	=125
1GG	2c]	2.G	1d	2g
.	2B	.	.	1g
.	.	4F	.	.
1C	1c	2E	1e	.
.	.	[2G	.	2e
=126	=126	=126	=126	=126
1D	2.A	2G]	1d	2f
.	.	2F	.	2d
.	4B	.	.	.
1C	4c	2.G	1r	2e
.	4d	.	.	.
.	[2e	.	.	2c
.	.	4A	.	.
=127	=127	=127	=127	=127
2.G	2e]	1.B	2r	1d
.	1d	.	2d	.
4F	.	.	.	.
2E	.	.	2e	1r
2E	2c	4A	[2g	.
.	.	4G	.	.
=128	=128	=128	=128	=128
1D	2.d	1A	2g]	2r
.	.	.	2f#i	2d
.	4c	.	.	.
1GG	1B	1G	1g	2d
.	.	.	.	2d
=129	=129	=129	=129	=129
1AA	2A	1r	2.e	2c
.	1c	.	.	2.e
.	.	.	4f	.
1r	.	2r	4g	.
.	.	.	4a	4d
.	2d	[2G	[2b	[2dd
=130	=130	=130	=130	=130
1r	1e	2G]	2b]	2dd]
.	.	2A	1a	2cc
1G	[1d	1B	.	2dd
.	.	.	2g	4d
.	.	.	.	4e
=131	=131	=131	=131	=131
2.F	2d]	2A	2.a	4f
.	.	.	.	4g
.	2c	2.c	.	1a
4E	.	.	4g	.
1D	1d	.	1f	.
.	.	4B	.	.
.	.	4B	.	4g
.	.	4A	.	4f
=132	=132	=132	=132	=132
1C	1e	1c	2e	2.g
.	.	.	1g	.
.	.	.	.	4a
2G	[1d	2B	.	4b
.	.	.	.	4cc
2F	.	2A	2a	[2dd
=133	=133	=133	=133	=133
1G	0d_	4G	1b	2dd]
.	.	4A	.	.
.	.	4B	.	1g
.	.	4G	.	.
[1D	.	2A	[1a	.
.	.	[2d	.	4f
.	.	.	.	4e
=134	=134	=134	=134	=134
2D]	1d]	4d]	2a]	2f
.	.	4c	.	.
2GG	.	2B	2g	1g
1D	2r	2A	1a	.
.	[2d	2A	.	2f
=135	=135	=135	=135	=135
1G	2d]	2G	1b	2g
.	2G	1d	.	2g
2D	2.A	.	[1a	2f
[2A	.	2c	.	[2e
.	4B	.	.	.
=136	=136	=136	=136	=136
2A]	2c	2.A	0a_	2e]
2D	1d	.	.	2f
.	.	4B	.	.
1A	.	4c	.	1e
.	.	4B	.	.
.	2c#i	4A	.	.
.	.	4G	.	.
=137	=137	=137	=137	=137
1.D	1d	2.F	1a]	2d
.	.	.	.	1f
.	.	4G	.	.
.	1r	1A	2r	.
2C	.	.	[2a	2e
=138	=138	=138	=138	=138
2.D	0r	1A	2a]	2.f
.	.	.	2d	.
4C	.	.	.	4g
2AA	.	1c	2.e	2a
2A	.	.	.	2A
.	.	.	4f	.
=139	=139	=139	=139	=139
2G	0r	1d	2g	2B
2F	.	.	1a	2A
1E	.	1e	.	1B
.	.	.	2g#i	.
=140	=140	=140	=140	=140
1r	0r	2c	1a	2A
.	.	1d	.	1f
2r	.	.	1r	.
[2D	.	4c	.	4e
.	.	4B	.	4d
=141	=141	=141	=141	=141
2D]	0r	4A	0r	4f
.	.	4B	.	4g
2C	.	4c	.	1a
.	.	4A	.	.
2D	.	1B	.	.
2E	.	.	.	2g
=142	=142	=142	=142	=142
2C	0r	2.A	0r	2e
1D	.	.	.	1f
.	.	4G	.	.
.	.	2A	.	.
4C	.	2B	.	4e
4BB	.	.	.	4d
=143	=143	=143	=143	=143
2AA	1r	2c	0r	1e
2C	.	1A	.	.
1BB	1d	.	.	1r
.	.	2G#i	.	.
=144	=144	=144	=144	=144
1AA	1c	4A	0r	2r
.	.	4G	.	.
.	.	4F	.	2a
.	.	4E	.	.
2r	1d	2F	.	2a
[2G	.	2G	.	[2b
=145	=145	=145	=145	=145
2G]	1e	2E	0r	2b]
2E	.	1c	.	4a
.	.	.	.	4g
1F	2c	.	.	1a
.	[2d	2A	.	.
=146	=146	=146	=146	=146
2G	2d]	2B	1r	2g
1A	2c	1c	.	1e
.	2A	.	1a	.
2F	2c	2A	.	2f
=147	=147	=147	=147	=147
1G	1B	4B	1g	0d
.	.	4G	.	.
.	.	1g	.	.
1D	2A	.	1a	.
.	[2d	2f#i	.	.
=148	=148	=148	=148	=148
1G	2d]	1g	1b	2r
.	2B	.	.	2.dd
2E	1c	1r	2g	.
.	.	.	.	4cc
[2F	.	.	[2a	[2cc
=149	=149	=149	=149	=149
2F]	1d	2r	2a]	2cc]
2G	.	1G	2g	2b
1C	1c	.	2e	[1cc
.	.	2E	2g	.
=150	=150	=150	=150	=150
1F	2.A	4F	1f	1cc]
.	.	4G	.	.
.	.	4A	.	.
.	4B	4F	.	.
2C	2c	2G	2e	1cc
[2F	4B	2F	[2a	.
.	4A	.	.	.
=151	=151	=151	=151	=151
2F]	2c	1f	2a]	1a
2D	2d	.	2f	.
1G	1B	2e	1g	2b
.	.	2d	.	[2dd
=152	=152	=152	=152	=152
1F	1A	2.f	1a	4dd]
.	.	.	.	4cc
.	.	.	.	2a
.	.	4e	.	.
1G	1r	1d	1g	1b
=153	=153	=153	=153	=153
2.C	1.G	1c	2.e	1cc
4D	.	.	4f	.
2E	.	2B	2g	2r
2AA	2A	[2c	4f	[2cc
.	.	.	4e	.
=154	=154	=154	=154	=154
2E	2G	4c]	2g	2cc]
.	.	4B	.	.
2F	1c	1A	2a	2cc
1D	.	.	1f	1dd
.	2B	4G	.	.
.	.	4F	.	.
=155	=155	=155	=155	=155
1C	2.c	2G	1e	1g
.	.	1g	.	.
.	4B	.	.	.
1D	1A	.	1r	2.dd
.	.	2f#i	.	.
.	.	.	.	4cc
=156	=156	=156	=156	=156
2GG	2.G	0g	1.d	4b
.	.	.	.	4a
1G	.	.	.	2b
.	4A	.	.	.
.	2B	.	.	2.g
2C	2c	.	2e	.
.	.	.	.	4a
=157	=157	=157	=157	=157
1G	2.B	2r	2d	4b
.	.	.	.	4cc
.	.	1d	1g	2.dd
.	8AL	.	.	.
.	8GJ	.	.	.
1D	1A	.	.	.
.	.	.	.	4cc
.	.	2d	2f	2a
=158	=158	=158	=158	=158
1GG	[0Gl	1d	2.g	1b
.	.	.	4f	.
1C	.	1c	1e	1g
=159	=159	=159	=159	=159
00GGl	00G]	00Bl	00dl	00gl
==	==	==	==	==
*-	*-	*-	*-	*-
!!!system-decoration: [*]
!!!RDF**kern: i = editorial accidental
!!!RDF**kern: l = terminal long
!!!ENC: Benjamin Ory
!!!END: 2023/9/20
!!!EED: Benjamin Ory
!!!EEV: 2023/09/20
!!!YEC: Copyright 2023 Benjamin Ory, All Rights Reserved
!!!ONB: Translated from MusicXML on 2023/09/20
